img/arrowwhite.svg

<svg width="11" height="16" viewBox="0 0 11 16" fill="none" xmlns="http://www.w3.org/2000/svg">
<path d="M4.81951 1.05554L4.81951 12.6308L2.27646 10.0877C1.92569 9.73698 1.39954 9.73698 1.04878 10.0877C0.698014 10.4385 0.698014 10.9647 1.04878 11.3154L5.08258 15.3492C5.43335 15.7 5.95949 15.7 6.31026 15.3492L10.3441 11.3154C10.6948 10.9647 10.6948 10.4385 10.3441 10.0877C9.9933 9.73698 9.46715 9.73698 9.11638 10.0877L6.57333 12.6308L6.57333 1.05554C6.57333 0.617083 6.22257 0.178627 5.69642 0.178627C5.17027 0.178627 4.81951 0.617083 4.81951 1.05554Z" fill="white"/>
</svg>

<svg width="11" height="16" fill="none" xmlns="http://www.w3.org/2000/svg"><path d="M4.82 1.056V12.63l-2.544-2.543a.848.848 0 00-1.227 0 .848.848 0 000 1.227l4.034 4.034a.847.847 0 001.227 0l4.034-4.034a.848.848 0 000-1.227.848.848 0 00-1.228 0L6.573 12.63V1.056a.879.879 0 00-.877-.877.879.879 0 00-.876.877z" fill="#fff"/></svg>
